X: 7891
T:Swan's March
R:March
O:England
M:C
A:Westmorland
N:P25(2nd), 1/2
K:D
d>c|d2DDD2f>e|f2DDD2A2|B2 (3gfe d2c2|d2ddd2e2|\
f4g4|a2eee2d2|(3cde (3ged c2B2|A2AAA2:|
|:ee|e2AA Aceg|agfe gedc|dd AA FF DD|A2AAA2dc|\
d2DDD2a2|b4a3f| (3gef (3gfe d2c2|d2ddd2:|
